X: 271
T: Bound to Have a Little Fun
B: canberra pickers and fiddlers
B: tunes
M:4/4
L:1/8
R: reel
Q: 1/4=100
K:G
V:1 
%
(3DEF|:GFGA B2A2|GFGE D2 G2-|GFGA BGAG|E2 EG E2 (3DEF|
GFGA B2A2|GFGD B,A,B,C|D2 DF EDEF|1 G3G G2 (3DEF:|2 G3 G G2 ef||
|:g2 ga ge d2|edBc d2 e2-|e2 ef e2 eg|edBc d2 ef|
gfga gedd|edBc d2 (3BcB|AGAA BAGD|E2 EF E2 (3DEF|
GFGG BAGF|G2 GD B,2 B,C|D2 DF EDEF|1 G3G G2 ef:|2 G3 G G4||
% abcbook-tune_id 63ae8f1cbb3e6a862e864f4a
% abcbook-tune_composer_id 
% abcbook-link-0 https://www.youtube.com/watch?v=szYeC6F7HWU
% abcbook-link-start-at-0 8
% abcbook-link-end-at-0 99
% abcbook-boost 0
% abcbook-difficulty 0
% abcbook-tags canberra pickers and fiddlers,old time tunes,steve ryan,© free
% abcbook-tablature 
% abcbook-transpose 
% abcbook-tuning GDAD
% abcbook-lastupdated 1677370664819
% abcbook-src-url https://tunebook.net/scrape/tunes.abc
% abcbook-soundfonts 
% abcbook-repeats 1


